files/1/256x256/places/folder-copy.svg

<?xml version="1.0" encoding="UTF-8" standalone="no"?>
<svg
   xmlns:dc="http://purl.org/dc/elements/1.1/"
   xmlns:cc="http://creativecommons.org/ns#"
   xmlns:rdf="http://www.w3.org/1999/02/22-rdf-syntax-ns#"
   xmlns:svg="http://www.w3.org/2000/svg"
   xmlns="http://www.w3.org/2000/svg"
   xmlns:sodipodi="http://sodipodi.sourceforge.net/DTD/sodipodi-0.dtd"
   xmlns:inkscape="http://www.inkscape.org/namespaces/inkscape"
   width="256"
   height="256"
   viewBox="0 0 204.8 204.8"
   version="1.1"
   id="svg3013"
   inkscape:version="0.48.5 r10040"
   sodipodi:docname="folder-copy.svg">
  <metadata
     id="metadata3022">
    <rdf:RDF>
      <cc:Work
         rdf:about="">
        <dc:format>image/svg+xml</dc:format>
        <dc:type
           rdf:resource="http://purl.org/dc/dcmitype/StillImage" />
      </cc:Work>
    </rdf:RDF>
  </metadata>
  <defs
     id="defs3020" />
  <sodipodi:namedview
     pagecolor="#ffffff"
     bordercolor="#666666"
     borderopacity="1"
     objecttolerance="10"
     gridtolerance="10"
     guidetolerance="10"
     inkscape:pageopacity="0"
     inkscape:pageshadow="2"
     inkscape:window-width="1280"
     inkscape:window-height="998"
     id="namedview3018"
     showgrid="true"
     inkscape:zoom="1.0429825"
     inkscape:cx="97.718085"
     inkscape:cy="145.36077"
     inkscape:window-x="0"
     inkscape:window-y="0"
     inkscape:window-maximized="1"
     inkscape:current-layer="svg3013">
    <inkscape:grid
       type="xygrid"
       id="grid3226"
       empspacing="5"
       visible="true"
       enabled="true"
       snapvisiblegridlinesonly="true" />
  </sodipodi:namedview>
  <g
     id="surface1"
     transform="scale(0.8,0.8)">
    <path
       style="fill:#c28f5c;fill-opacity:1;fill-rule:nonzero;stroke:none"
       d="m 0,0 0,128 80,0 0,-16 80,0 0,-96 -80,0 0,-16 z m 96,128 0,128 160,0 0,-112 -80,0 0,-16 z m 0,0"
       id="path3016"
       inkscape:connector-curvature="0" />
  </g>
</svg>

<svg xmlns="http://www.w3.org/2000/svg" xmlns:xlink="http://www.w3.org/1999/xlink" width="256px" height="256px" viewBox="0 0 256 256" version="1.1">
<g id="surface1">
<path style=" stroke:none;fill-rule:nonzero;fill:rgb(76.862745%,56.470588%,36.862745%);fill-opacity:1;" d="M 0 0 L 0 128 L 80 128 L 80 112 L 160 112 L 160 16 L 80 16 L 80 0 Z M 96 128 L 96 256 L 256 256 L 256 144 L 176 144 L 176 128 Z M 96 128 "/>
</g>
</svg>
